X: 4869
T: Braes Of Elchies, The
R: jig
M: 6/8
K: Dmajor
|:B|AFA d2 e|fdf gfe|A2 A d2 e|f/g/af e2 B|
A2 F d2 e|fd/e/f g2 A|B^AB AdF|E3 D2:|
|:f|afa d2 f|bgb d2 g|a^ga afd|f^ef =e3|
[1 af/g/a d2 f|bge B2 g|afd ecA|B2 c d2:|
[2 B2 G Bcd|A2 f A2 d|BgB AdF|E^DE =D2||

